!!!!SEGMENT: pl-wnifc--13846--061_anonim--piesni-polskie-i-ruskie-ludu-galicyjskiego-61-slawa-nasza-kozackaja.krn
!!!kernsource:
!!!cenid: 18xx:3283
!!!COM: Anonim
!!!COM-rismid: pe30004985
!!!CDT:
!!!CNT:
!!!GTL: Pieśni polskie i ruskie ludu galicyjskiego
!!!OTL: 61. Sława nasza kozaćkaja
!!!PDT: 1833
!!!AGN:
!!!SMS-siglum: PL-Wnifc
!!!SMS-shelfmark: 13846
!!!SMS-shelfwork: 061 G
!!!SMS-variant:
!!!SMS-altvar:
!!!NIFC-rismid: 1001037172
!!!URL-scan: http://repozytorium.nifc.pl/skany/pl-wnifc-nut--13846
!!!ONB-nifc:
!!!OMD: Kozak.
!!!key: G
**kern	**kern	**kern	**text	**text
*part2	*part2	*part1	*part1	*part1
*staff3	*staff2	*staff1	*staff1	*staff1
*I"Fortepian	*I"Fortepian	*I"Głos	*	*
*Ipiano	*Ipiano	*Ivox	*	*
*ICklav	*ICklav	*ICvox	*	*
*IGacmp	*IGacmp	*IGsolo	*	*
*clefF4	*clefG2	*clefG2	*	*
*k[f#]	*k[f#]	*k[f#]	*	*
*G:	*G:	*G:	*	*
*M2/4	*M2/4	*M2/4	*	*
*>[A,A,B,B]	*>[A,A,B,B]	*>[A,A,B,B]	*	*
=1	=1	=1	=1	=1
*>A	*>A	*>A	*	*
!LO:TX:t=P:problem:mixed beam	!	!LO:TX:a:t=D.b.E.2	!	!
8GG/L	8.b\^<L 8.gg\	8.gg\	Sła-	szczo
8G\J	.	.	.	.
.	16b\Jk 16dd\	16dd\	-wa	w_hu-
!LO:TX:t=P:problem:mixed beam	!	!	!	!
8GG/L	8b\L 8dd\	8dd\	na-	-lań-
8G\J	8b\J 8dd\	8dd\	-sza	-ci
=2	=2	=2	=2	=2
!LO:TX:t=P:problem:mixed beam	!	!	!	!
8GG/L	(16cc\LL 16ee\	(16ee\LL	ko-	do-
.	16b\) 16dd\	16dd\JJ)	.	.
8G\J	(16a#X/ 16cc#X/	(16cc#X\LL	zać-	la
.	16b\JJ) 16dd\	16dd\JJ)	.	.
8GG/L	8.g/^L 8.b/	8.b\	ka-	na-
8G/J	.	.	.	.
.	16b\Jk 16dd\	16dd\	-ja	-sza
!!LO:LB:g=original
=3	=3	=3	=3	=3
8DD/L	(16b\LL 16dd\	(16dd\LL	nech	i
.	16a\JJ) 16ccn\	16ccnX\JJ)	.	.
8D\J	8a\ 8cc\	8cc\	ne	nuż-
8DD/L	16a\LL 16cc\	(16cc\LL	za-	-dy
.	16g#X\ 16b\	16b\JJ)	.	.
8D\J	16a\ 16cc\	(16cc\LL	hy-	ne-
.	16cc\JJ 16ee\	16ee\JJ)	.	.
=4	=4	=4	=4	=4
!LO:TX:t=P:problem:mixed beam	!	!	!	!
8GG/L	(8.cc\L 8.ee\	(8.ee\L	ba-	zna-
8G\J	.	.	.	.
.	16b\Jk) 16dd\	16dd\Jk)	.	.
8GG/L	4b\ 4dd\	4dd\	je	je
8G/J	.	.	.	.
=5:|!|:	=5:|!|:	=5:|!|:	=5:|!|:	=5:|!|:
*>B	*>B	*>B	*	*
16c\LL	8a\L 8ff#\	8f#/	szczo	.
16d\	.	.	.	.
16D\	8cc\ 8aa\	8a/	w hu-	.
16d\JJ	.	.	.	.
16F#\LL	8cc\ 8aa\	8a/	-lań-	.
16d\	.	.	.	.
16D\	8cc\J 8aa\	8a/	-ci	.
16d\JJ	.	.	.	.
!!LO:LB:g=original
=6	=6	=6	=6	=6
16G\LL	8b\L 8gg\	8g/	w_we-	.
16d\	.	.	.	.
16D\	8dd\ 8bb\	8b/	-czer,	.
16d\JJ	.	.	.	.
16G\LL	8dd\ 8bb\	8b/	w_ran-	.
16d\	.	.	.	.
16D\	8dd\J 8bb\	8b/	-ci,	.
16d\JJ	.	.	.	.
=7	=7	=7	=7	=7
.	(32qdd/LLL	.	.	.
.	32qff#/	.	.	.
.	32qaa/JJJ)	.	.	.
16A\LL	8.ccc\L	8.cc\	i	.
16d\	.	.	.	.
16D\	.	.	.	.
16d\JJ	16aa\Jk	16a\	w_po-	.
16c\LL	(16gg\LL	(16g/LL	-łu-	.
16d\	16ff#\)	16f#/JJ)	.	.
16D\ 16A\	(16ee\	(16e/LL	dnie	.
16d\JJ	16dd\JJ)	16d/JJ)	.	.
=8	=8	=8	=8	=8
16B\LL	(16gg\LL	(16g\LL	i	.
16d\	16aa\	16a\	.	.
16D\	16bb\	16b\JJ)	.	.
16d\JJ	16ccc\JJ)	16cc\	w_no-	.
16G\LL	4ddd\	4dd\	-czy,	.
16d\	.	.	.	.
16D\	.	.	.	.
16d\JJ	.	.	.	.
!!LO:LB:g=original
=9	=9	=9	=9	=9
16c\LL	8a\L 8ff#\	8f#/	sko-	.
16d\	.	.	.	.
16D\	8cc\ 8aa\	8a/	-czno	.
16d\JJ	.	.	.	.
16F#\LL	8cc\ 8aa\	8a/	hra-	.
16d\	.	.	.	.
16D\	8cc\J 8aa\	8a/	-ty	.
16d\JJ	.	.	.	.
=10	=10	=10	=10	=10
16G\LL	8b\L 8gg\	8g/	i	.
16d\	.	.	.	.
16D\	8dd\ 8bb\	8b/	śpi-	.
16d\JJ	.	.	.	.
16G\LL	8dd\ 8bb\	8b/	-wa-	.
16d\	.	.	.	.
16D\	8dd\J 8bb\	8b/	-ty	.
16d\JJ	.	.	.	.
=11	=11	=11	=11	=11
.	32qdd/LLL	.	.	.
.	32qff#/	.	.	.
.	32qaa/JJJ	.	.	.
16A\LL	8.ccc\L	8.cc\	za-	.
16d\	.	.	.	.
16D\	.	.	.	.
16d\JJ	16aa\Jk	16a/	-wsze	.
16c\LL	(16gg\LL	(16g/LL	ko-	.
16d\	16ff#\)	16f#/JJ)	.	.
16D\	(16ee\	(16e/LL	zak	.
16d\JJ	16dd\JJ)	16d/JJ)	.	.
=12	=12	=12	=12	=12
16G\LL 16B\	8gg\L	8g/	o-	.
16d\	.	.	.	.
16G\ 16B\	8b\ 8gg\	8g/	-cho-	.
16d\JJ	.	.	.	.
4G\ 4B\	8b\J 8gg\	8g/	-czy.	.
.	8r	8r	.	.
!!LO:PB:g=original
==	==	==	==	==
*-	*-	*-	*-	*-
!!!system-decoration: s1,{(s2,s3)}
!!!RDF**kern: < = below
!!!RDF**kern: > = above
!!!AIN: 1 piano 1 vox
!!!ENC: Marta Chmielewska
!!!END: 2021-11-10
